X:1
L:1/8
Q:1/8=180
M:4/4
K:Bmin
 FBB^A B2 FB | cBAc ecBA | FB B2 FBdB | cBAc B2 (3cBA |""^5"" FB B2 FB B2 | A2 (3cBA eA (3cBA | 
 FBB^A BcdB | cBAc B2 (3ABc ||""^9"" d2 dc dfed | (3cBA eA fAec | dcBc def^g | afec cB B2 | 
""^13"" dcBc dfec | Acec Acec | dcBc defb | afec cB B2 ||""^17"" bB B2 bB B2 | A2 (3cBA eA (3cBA | 
 bB B2 bafb | afec cB B2 |""^21"" fbb^a b=afb | afec ABce | d2 dc def^g | afec B4 ||
